X: 2085
T: Çay İçinde Adalar
C: Tahir Oturan
O: Turkey
F: http://compmusic.upf.edu/node/140
N: tahir--turku--yuruksemai--cay_icinde--urfa
N: makam= tahir
N: form= turku
N: usul= yuruksemai = 6/8
M: 6/8
L: 1/16
K: C _2/4B ^3/4f  
Q: 1/4=114
%%MIDI tuningsystem comma53
f2g2a6g2a2f2 g2e4d2  | d2{e}c2e6d2d2{e}c2 d6z2  | \
w:  ARANAĞME  |   | 
B2c2d6a2g2^2/4f2 e2d4B2  | 
w:   | 
c2d2c2B4A2A12  | z4b2c'2 c'2b2b2a2 a8  | \
w:   |  Çay_ *  i *  çin *  de   | 
g4c'bc'd' c'2{d'}b2a2g2 a8  | 
w:  a da *  *  *  *  *  *  lar    | 
z4b2c'2 c'2b2b2a2 a8  | g4c'bc'd' c'2{d'}b2a2g2 a4z4  | \
w:  Çay_ *  i *  çin *  de   |  a da *  *  *  *  *  *  lar    | 
f2g2a6g2a2f2 g2e4d2  | 
w:  Sâ *  kî  *  dol *  dur   | 
d2c2e6d2d2{e}c2 d6z2  | B2c2d6a2g2=f2 e2d4B2  | \
w:  bâ *  de *  ler    |  Yâr  *  yâr  *  yâr  *  yâr   | 
c2d2c2B4A2A8agab  | 
w:  za *  lım  *  *  yâr   SAZ  | 
c'4b2c'2 c'2b2b2{c'}a2 a8  | g4c'bc'd' c'2b2a2g2 a4a2b2  | \
w:  *  Şi *  rin  *  câ *  *  nı  |  ma  gel *  *  *  *  *  sin   *  *  SAZ  | 
c'4b2c'2 c'2b2b2a2 a8  | 
w:  *  Şi *  rin  *  câ *  nı  | 
g4c'bc'd' c'2b2a8z4  | f2g2a6g2a2f2 g2e4d2  | \
w:  ma  gel *  *  *  *  *  sin    |  Sa *  na  *  ge *  len   | 
d2{e}c2e6d2d2{e}c2 d6z2  | 
w:  ka *  *  da *  lar    | 
B2c2d6a2g2^2/4f2 e2d4B2  | c2d2c2B4A2A12  | \
w:  Yâr  *  yâr  *  yâr  *  yâr   |  za *  lım  *  *  yâr    | 
z4b2c'2 c'2b2b2a2 a8  | 
w:  He *  le  *  yâr  *  yâr   | 
g4c'bc'd' c'2{d'}b2a2g2 a8  | z4b2c'2 c'2b2b2a2 a8  | \
w:  za lım  *  *  *  *  *  *  yâr    |  He *  le  *  yâr  *  yâr   | 
g4c'bc'd' c'2{d'}b2a2g2 a4z4  | 
w:  za lım  *  *  *  *  *  *  yâr    | 
f2g2a6g2a2f2 g2e4d2  | d2c2e6d2d2{e}c2 d6z2  | \
w:  Ay *  rı *  lık  *  var   |  ö *  lüm  *  var    | 
B2c2d6a2g2=f2 e2d4B2  | 
w:  U *  zak  *  yol *  dan   | 
c2d2c2B4A2A8agab  | f2g2a6g2a2f2 g2e4d2  | \
w:  dö *  nüm  *  *  var   SAZ  |  ARANAĞME  | 
d2{e}c2e6d2d2{e}c2 d6z2  | 
w:   | 
B2c2d6a2g2^2/4f2 e2d4B2  | c2d2c2B4A2A12  | \
w:   |   | 
z4b2c'2 c'2b2b2a2 a8  | 
w:  Çay_ *  i *  çin *  de   | 
g4c'bc'd' c'2{d'}b2a2g2 a8  | z4b2c'2 c'2b2b2a2 a8  | \
w:  a da *  *  *  *  *  *  lar    |  Çay_ *  i *  çin *  de   | 
g4c'bc'd' c'2{d'}b2a2g2 a4z4  | 
w:  a da *  *  *  *  *  *  lar    | 
f2g2a6g2a2f2 g2e4d2  | d2c2e6d2d2{e}c2 d6z2  | \
w:  Sâ *  kî  *  dol *  dur   |  bâ *  de *  ler    | 
B2c2d6a2g2=f2 e2d4B2  | 
w:  Yâr  *  yâr  *  yâr  *  yâr   | 
c2d2c2B4A2A8agab  | c'4b2c'2 c'2b2b2{c'}a2 a8  | \
w:  za *  lım  *  *  yâr   SAZ  |  *  Şi *  rin  *  câ *  *  nı  | 
g4c'bc'd' c'2b2a2g2 a4a2b2  | 
w:  ma  gel *  *  *  *  *  sin   *  *  SAZ  | 
c'4b2c'2 c'2b2b2a2 a8  | g4c'bc'd' c'2b2a8z4  | \
w:  *  Şi *  rin  *  câ *  nı  |  ma  gel *  *  *  *  *  sin    | 
f2g2a6g2a2f2 g2e4d2  | 
w:  Sa *  na  *  ge *  len   | 
d2{e}c2e6d2d2{e}c2 d6z2  | B2c2d6a2g2^2/4f2 e2d4B2  | \
w:  ka *  *  da *  lar    |  Yâr  *  yâr  *  yâr  *  yâr   | 
c2d2c2B4A2A12  | 
w:  za *  lım  *  *  yâr    | 
z4b2c'2 c'2b2b2a2 a8  | g4c'bc'd' c'2{d'}b2a2g2 a8  | \
w:  He *  le  *  yâr  *  yâr   |  za lım  *  *  *  *  *  *  yâr    | 
z4b2c'2 c'2b2b2a2 a8  | 
w:  He *  le  *  yâr  *  yâr   | 
g4c'bc'd' c'2{d'}b2a2g2 a4z4  | f2g2a6g2a2f2 g2e4d2  | \
w:  za lım  *  *  *  *  *  *  yâr    |  Ay *  rı *  lık  *  var   | 
d2c2e6d2d2{e}c2 d6z2  | 
w:  ö *  lüm  *  var    | 
B2c2d6a2g2=f2 e2d4B2  | c2d2c2B4A2A8|
w:  U *  zak  *  yol *  dan   |  dö *  nüm  *  *  var    | 


